tools/download-figma-icons/icons/outlined-large/shield.svg

<svg width="64" height="64" viewBox="0 0 64 64" fill="none" xmlns="http://www.w3.org/2000/svg">
<path d="M57.0092 8.22257L32.4904 0.0600188C32.4904 0.0600188 32.4704 0.0600188 32.4604 0.0600188C32.4003 0.0400125 32.3303 0.0300094 32.2702 0.0200063C32.2402 0.0200063 32.2002 0.0100031 32.1701 0C32.1201 0 32.06 0 32.01 0C31.96 0 31.9199 0 31.8699 0C31.8299 0 31.7898 0.0100031 31.7498 0.0200063C31.6898 0.0300094 31.6297 0.0400125 31.5697 0.0600188C31.5697 0.0600188 31.5497 0.0600188 31.5396 0.0600188L7.03079 8.22257C6.42032 8.42263 6 9.00281 6 9.64301V38.0919C6 38.1519 6 38.2019 6 38.262C6.02002 38.462 6.59045 43.2435 10.0531 48.8053C13.2256 53.9068 19.5404 60.669 31.6197 63.95C31.7498 63.99 31.8799 64 32 64C32.1301 64 32.2602 63.98 32.3803 63.95C55.5681 57.658 57.98 38.452 58 38.262C58 38.2119 58 38.1519 58 38.0919V9.64301C58 8.99281 57.5897 8.42263 56.9692 8.22257H57.0092ZM55.0377 38.0019C54.8676 39.2023 52.2055 55.2573 32.02 60.939C11.7144 55.2273 9.18245 39.3923 9.00231 38.0019V10.7233L32.02 3.07096L55.0377 10.7334V38.0019Z" fill="black"/>
<path d="M32.2903 5.01171C32.2903 5.01171 32.2102 4.9917 32.1702 4.9917C32.1201 4.9917 32.0601 4.9917 32.0101 4.9917C31.96 4.9917 31.92 4.9917 31.87 4.9917C31.8199 4.9917 31.7799 5.0017 31.7298 5.01171C31.6798 5.02171 31.6298 5.03171 31.5797 5.05172C31.5597 5.05172 31.5397 5.05172 31.5197 5.06172L12.0047 11.8939C11.4042 12.1039 11.0039 12.6741 11.0039 13.3143V37.1017C11.0039 37.1517 11.0039 37.2118 11.0039 37.2618C11.0239 37.4318 11.4743 41.4631 14.2564 46.1546C16.7984 50.4559 21.8623 56.1477 31.5397 58.9286C31.5597 58.9286 31.5797 58.9386 31.5998 58.9486C31.7299 58.9886 31.87 58.9986 32.0001 59.0086C32.0001 59.0086 32.0001 59.0086 32.0101 59.0086C32.0101 59.0086 32.0101 59.0086 32.0201 59.0086C32.1502 59.0086 32.2903 58.9886 32.4204 58.9486C32.4404 58.9486 32.4604 58.9386 32.4804 58.9286C42.1579 56.1477 47.2218 50.4559 49.7637 46.1546C52.5359 41.4631 52.9962 37.4318 53.0162 37.2618C53.0162 37.2118 53.0162 37.1517 53.0162 37.1017V13.3143C53.0162 12.6741 52.6159 12.1039 52.0155 11.8939L32.5004 5.07172C32.5004 5.07172 32.4704 5.07172 32.4604 5.06172C32.4004 5.04172 32.3403 5.03171 32.2803 5.02171L32.2903 5.01171ZM50.0339 37.0017C49.8738 38.2221 47.8422 51.1961 32.0201 55.9276C16.1879 51.1961 14.1563 38.2021 14.0062 37.0017V14.3746L32.0201 8.07266L50.0339 14.3746V37.0017Z" fill="black"/>
<path d="M29.9584 38.0718L23.5735 31.0496C23.0131 30.4394 22.0623 30.3894 21.4519 30.9496C20.8414 31.5098 20.7914 32.4601 21.3518 33.0703L29.0277 41.5129C29.3179 41.823 29.7182 42.0031 30.1385 42.0031C30.1786 42.0031 30.2086 42.0031 30.2486 42.0031C30.709 41.973 31.1293 41.723 31.3795 41.3428L42.8283 24.3375C43.2887 23.6473 43.1085 22.717 42.418 22.2569C41.7275 21.7967 40.7967 21.9768 40.3364 22.667L29.9584 38.0818V38.0718Z" fill="black"/>
</svg>

<svg xmlns="http://www.w3.org/2000/svg" width="64" height="64" fill="none" viewBox="0 0 64 64"><path fill="currentColor" d="M57.01 8.223 32.49.06h-.03c-.06-.02-.13-.03-.19-.04-.03 0-.07-.01-.1-.02h-.3c-.04 0-.08.01-.12.02-.06.01-.12.02-.18.04h-.03L7.03 8.223c-.61.2-1.03.78-1.03 1.42v28.619c.02.2.59 4.981 4.053 10.543C13.226 53.907 19.54 60.67 31.62 63.95c.13.04.26.05.38.05.13 0 .26-.02.38-.05C55.568 57.658 57.98 38.452 58 38.262V9.643c0-.65-.41-1.22-1.03-1.42zm-1.972 29.779c-.17 1.2-2.832 17.255-23.018 22.937C11.714 55.227 9.182 39.392 9.002 38.002V10.723L32.02 3.071l23.018 7.662z"/><path fill="currentColor" d="M32.29 5.012s-.08-.02-.12-.02h-.3c-.05 0-.09.01-.14.02s-.1.02-.15.04c-.02 0-.04 0-.06.01l-19.515 6.832c-.6.21-1.001.78-1.001 1.42v23.948c.02.17.47 4.201 3.252 8.893 2.542 4.3 7.606 9.993 17.284 12.774.02 0 .04.01.06.02.13.04.27.05.4.06h.02c.13 0 .27-.02.4-.06.02 0 .04-.01.06-.02 9.678-2.781 14.742-8.473 17.284-12.774 2.772-4.692 3.232-8.723 3.252-8.893V13.314c0-.64-.4-1.21-1-1.42L32.5 5.072s-.03 0-.04-.01c-.06-.02-.12-.03-.18-.04zm17.744 31.99c-.16 1.22-2.192 14.194-18.014 18.926-15.832-4.732-17.864-17.726-18.014-18.926V14.375L32.02 8.073l18.014 6.302z"/><path fill="currentColor" d="m29.958 38.072-6.384-7.022a1.502 1.502 0 0 0-2.222 2.02l7.676 8.443c.29.31.69.49 1.11.49h.11c.461-.03.881-.28 1.131-.66l11.45-17.006c.46-.69.28-1.62-.411-2.08a1.5 1.5 0 0 0-2.082.41L29.958 38.082z"/></svg>
